X:1
T:Title
%%score { ( 1 4 ) | ( 2 3 ) }
L:1/8
Q:1/4=75
M:6/8
K:F
V:1 treble nm="Grand Piano"
V:4 treble 
V:2 treble 
V:3 treble 
V:1
 A2 A AGA | B2 [Ec] A3 | c2 c cdc | [GB]2 [FA] [EG]3 | z3 .e3 | [Ec]d[DF=B] [CEc]2 [CG_B] | %6
w: Hubert~P.~Main * * * *||||||
 [CFA]2 [DFB] .[CFc]2 [A,F] | [CFA]2 [B,EG] [A,F]3 |] %8
w: ||
V:2
 z3 .F3 | [G,CE]2 [C,C] [F,CF]3 | z3 .[F,F]3 | [E,C]2 [F,C] [C,C]3 | [C,G,]2 [C,C] [C,C][D,=B,]E, | %5
 .G,3 z3 | F,2 D, z AD, | C,2 C, F,3 |] %8
V:3
 [F,CF]2 [F,CF] C-[B,CE][A,CF] | x6 | [F,A,F]2 [F,A,F] A,B,[F,A,F] | x6 | x6 | z FG,, C,2 E, | %6
 z3 .A,,3 | x6 |] %8
V:4
 x6 | x6 | x6 | x6 | [Ec]2 [EG] G-[Gd][CGc] | x6 | x6 | x6 |] %8

